public/img/decoration/magnifier.svg

<svg xmlns="http://www.w3.org/2000/svg" width="30" height="29" viewBox="0 0 29.125 29"><path fill-rule="evenodd" fill="#FFE987" d="M28.814 28.697c-.391.39-1.024.39-1.415 0l-5.837-5.889a12.902 12.902 0 0 1-8.545 3.226C5.828 26.034 0 20.206 0 13.017 0 5.828 5.828 0 13.017 0c7.189 0 12.986 5.828 12.986 13.017 0 3.187-1.143 6.103-3.038 8.366l5.849 5.9a1 1 0 0 1 0 1.414zM24 13c0-6.049-4.952-11-11-11C6.951 2 2 6.951 2 13c0 6.048 4.951 11 11 11 6.048 0 11-4.952 11-11zm-6 1h-4v4a1 1 0 0 1-2 0v-4H8a1 1 0 0 1 0-2h4V8a1 1 0 0 1 2 0v4h4a1 1 0 0 1 0 2z"/></svg>

<svg xmlns="http://www.w3.org/2000/svg" width="30" height="29" viewBox="0 0 29.125 29">
  <path fill-rule="evenodd"  fill="rgb(255, 233, 135)" d="M28.814,28.697 C28.423,29.087 27.790,29.087 27.399,28.697 L21.562,22.808 C19.280,24.811 16.298,26.034 13.017,26.034 C5.828,26.034 -0.000,20.206 -0.000,13.017 C-0.000,5.828 5.828,-0.000 13.017,-0.000 C20.206,-0.000 26.003,5.828 26.003,13.017 C26.003,16.204 24.860,19.120 22.965,21.383 L28.814,27.283 C29.204,27.673 29.204,28.306 28.814,28.697 ZM24.000,13.000 C24.000,6.951 19.048,2.000 13.000,2.000 C6.951,2.000 2.000,6.951 2.000,13.000 C2.000,19.048 6.951,24.000 13.000,24.000 C19.048,24.000 24.000,19.048 24.000,13.000 ZM18.000,14.000 L14.000,14.000 L14.000,18.000 C14.000,18.552 13.552,19.000 13.000,19.000 C12.448,19.000 12.000,18.552 12.000,18.000 L12.000,14.000 L8.000,14.000 C7.448,14.000 7.000,13.552 7.000,13.000 C7.000,12.448 7.448,12.000 8.000,12.000 L12.000,12.000 L12.000,8.000 C12.000,7.448 12.448,7.000 13.000,7.000 C13.552,7.000 14.000,7.448 14.000,8.000 L14.000,12.000 L18.000,12.000 C18.552,12.000 19.000,12.448 19.000,13.000 C19.000,13.552 18.552,14.000 18.000,14.000 Z"/>
</svg>
